svg/blobs-icons/no-decorations/kitchen-machine.svg

<svg xmlns="http://www.w3.org/2000/svg" xmlns:xlink="http://www.w3.org/1999/xlink" preserveAspectRatio="xMidYMid" width="205" height="216" viewBox="0 0 205 216"><defs><style>.cls-3{fill:#142a3b}.cls-4{fill:#000;opacity:.35}.cls-6{fill:#fbb713}.cls-7{fill:#000;opacity:.25}.cls-11{fill:#fff}.cls-19{fill:#ff3a2f}</style></defs><g id="group-87svg"><path d="M-.007.01s0 49.393.0 49.393 135.385.0 135.385.0 3.209 36.191 3.209 36.191-33.362 84.07-33.362 84.07-105.232.0-105.232.0.0 36.508.0 36.508 204.021.0 204.021.0.0-206.162.0-206.162S-.007.01-.007.01z" id="path-1" class="cls-3" fill-rule="evenodd"/><path d="M-.007.01s0 7.029.0 7.029 196.993.0 196.993.0.0 199.133.0 199.133S204.014 206.172 204.014 206.172s0-206.162.0-206.162S-.007.01-.007.01z" id="path-2" class="cls-4" fill-rule="evenodd"/><path d="M101.789 176.693S105.225 169.664 105.225 169.664s-105.232.0-105.232.0S-.007 176.693-.007 176.693s101.796.0 101.796.0z" id="path-3" class="cls-4" fill-rule="evenodd"/><path d="M57.489 169.029c29.329.0 53.104-23.773 53.104-53.101H4.387c0 29.328 23.775 53.101 53.102 53.101z" id="path-4" class="cls-6" fill-rule="evenodd"/><path d="M100.049 115.928c0 27.547-20.978 50.187-47.831 52.834C53.953 168.933 55.71 169.029 57.489 169.029c29.329.0 53.104-23.773 53.104-53.101H100.049z" id="path-5" class="cls-7" fill-rule="evenodd"/><path d="M89.118 71.463s-67.942.0-67.942.0.0-22.06.0-22.06 67.942.0 67.942.0.0 22.06.0 22.06z" id="path-6" class="cls-3" fill-rule="evenodd"/><path d="M21.176 49.403s0 3.515.0 3.515 67.941 3.514 67.941 3.514.0-7.029.0-7.029-67.941.0-67.941.0z" id="path-7" class="cls-4" fill-rule="evenodd"/><path d="M59.833 100.749s-9.372.0-9.372.0.0-29.286.0-29.286 9.372.0 9.372.0.0 29.286.0 29.286z" id="path-8" class="cls-3" fill-rule="evenodd"/><path d="M191.031 65.607s-36.412.0-36.412.0.0-26.941.0-26.941 36.412.0 36.412.0.0 26.941.0 26.941z" id="path-9" class="cls-11" fill-rule="evenodd"/><path d="M158.134 42.179s32.897.0 32.897.0S191.031 38.666 191.031 38.666s-36.412.0-36.412.0.0 26.942.0 26.942S158.134 65.608 158.134 65.608s0-23.429.0-23.429z" id="path-10" class="cls-4" fill-rule="evenodd"/><path d="M170.189 139.088c-6.15600000000001.0-11.178 4.63-11.908 10.59H152.374S152.374 152.605 152.374 152.605 158.281 152.605 158.281 152.605C159.011 158.565 164.033 163.197 170.189 163.197c6.65800000000002.0 12.056-5.398 12.056-12.055.0-6.65799999999999-5.398-12.054-12.056-12.054z" id="path-11" class="cls-4" fill-rule="evenodd"/><path d="M166.675 135.572C160.518 135.572 155.497 140.204 154.767 146.163H148.86s0 2.929.0 2.929S154.767 149.092 154.767 149.092C155.497 155.051 160.518 159.683 166.675 159.683 173.333 159.683 178.731 154.286 178.731 147.627c0-6.65700000000001-5.398-12.055-12.056-12.055z" id="path-12" class="cls-11" fill-rule="evenodd"/><path d="M161.648 81.421s-7.029.0-7.029.0.0-7.614.0-7.614 7.029.0 7.029.0.0 7.614.0 7.614z" id="path-13" class="cls-11" fill-rule="evenodd"/><path d="M191.031 81.421s-7.029.0-7.029.0.0-7.614.0-7.614 7.029.0 7.029.0.0 7.614.0 7.614z" id="path-14" class="cls-11" fill-rule="evenodd"/><path d="M191.031 106.019s-7.029.0-7.029.0.0-7.614.0-7.614 7.029.0 7.029.0.0 7.614.0 7.614z" id="path-15" class="cls-11" fill-rule="evenodd"/><path d="M161.648 106.019s-7.029.0-7.029.0.0-7.614.0-7.614 7.029.0 7.029.0.0 7.614.0 7.614z" id="path-16" class="cls-11" fill-rule="evenodd"/><path d="M57.49 215.543s-38.657.0-38.657.0S18.833 206.172 18.833 206.172s38.657.0 38.657.0S57.49 215.543 57.49 215.543z" id="path-17" class="cls-19" fill-rule="evenodd"/><path d="M198.059 215.543s-38.657.0-38.657.0S159.402 206.172 159.402 206.172s38.657.0 38.657.0S198.059 215.543 198.059 215.543z" id="path-18" class="cls-19" fill-rule="evenodd"/><path d="M57.489 206.172s-38.656.0-38.656.0.0 4.685.0 4.685 38.656.0 38.656.0.0-4.685.0-4.685z" id="path-19" class="cls-4" fill-rule="evenodd"/><path d="M159.402 206.172s0 4.685.0 4.685 38.657.0 38.657.0.0-4.685.0-4.685-38.657.0-38.657.0z" id="path-20" class="cls-4" fill-rule="evenodd"/></g></svg>

<svg xmlns="http://www.w3.org/2000/svg" xmlns:xlink="http://www.w3.org/1999/xlink" preserveAspectRatio="xMidYMid" width="205" height="216" viewBox="0 0 205 216">
  <defs>
    <style>

      .cls-3 {
        fill: #142a3b;
      }

      .cls-4 {
        fill: #000000;
        opacity: 0.35;
      }

      .cls-6 {
        fill: #fbb713;
      }

      .cls-7 {
        fill: #000000;
        opacity: 0.25;
      }

      .cls-11 {
        fill: #ffffff;
      }

      .cls-19 {
        fill: #ff3a2f;
      }
    </style>
  </defs>
  <g id="group-87svg">
    <path d="M-0.007,0.010 C-0.007,0.010 -0.007,49.403 -0.007,49.403 C-0.007,49.403 135.378,49.403 135.378,49.403 C135.378,49.403 138.587,85.594 138.587,85.594 C138.587,85.594 105.225,169.664 105.225,169.664 C105.225,169.664 -0.007,169.664 -0.007,169.664 C-0.007,169.664 -0.007,206.172 -0.007,206.172 C-0.007,206.172 204.014,206.172 204.014,206.172 C204.014,206.172 204.014,0.010 204.014,0.010 C204.014,0.010 -0.007,0.010 -0.007,0.010 Z" id="path-1" class="cls-3" fill-rule="evenodd"/>
    <path d="M-0.007,0.010 C-0.007,0.010 -0.007,7.039 -0.007,7.039 C-0.007,7.039 196.986,7.039 196.986,7.039 C196.986,7.039 196.986,206.172 196.986,206.172 C196.986,206.172 204.014,206.172 204.014,206.172 C204.014,206.172 204.014,0.010 204.014,0.010 C204.014,0.010 -0.007,0.010 -0.007,0.010 Z" id="path-2" class="cls-4" fill-rule="evenodd"/>
    <path d="M101.789,176.693 C101.789,176.693 105.225,169.664 105.225,169.664 C105.225,169.664 -0.007,169.664 -0.007,169.664 C-0.007,169.664 -0.007,176.693 -0.007,176.693 C-0.007,176.693 101.789,176.693 101.789,176.693 Z" id="path-3" class="cls-4" fill-rule="evenodd"/>
    <path d="M57.489,169.029 C86.818,169.029 110.593,145.256 110.593,115.928 C110.593,115.928 4.387,115.928 4.387,115.928 C4.387,145.256 28.162,169.029 57.489,169.029 Z" id="path-4" class="cls-6" fill-rule="evenodd"/>
    <path d="M100.049,115.928 C100.049,143.475 79.071,166.115 52.218,168.762 C53.953,168.933 55.710,169.029 57.489,169.029 C86.818,169.029 110.593,145.256 110.593,115.928 C110.593,115.928 100.049,115.928 100.049,115.928 Z" id="path-5" class="cls-7" fill-rule="evenodd"/>
    <path d="M89.118,71.463 C89.118,71.463 21.176,71.463 21.176,71.463 C21.176,71.463 21.176,49.403 21.176,49.403 C21.176,49.403 89.118,49.403 89.118,49.403 C89.118,49.403 89.118,71.463 89.118,71.463 Z" id="path-6" class="cls-3" fill-rule="evenodd"/>
    <path d="M21.176,49.403 C21.176,49.403 21.176,52.918 21.176,52.918 C21.176,52.918 89.117,56.432 89.117,56.432 C89.117,56.432 89.117,49.403 89.117,49.403 C89.117,49.403 21.176,49.403 21.176,49.403 Z" id="path-7" class="cls-4" fill-rule="evenodd"/>
    <path d="M59.833,100.749 C59.833,100.749 50.461,100.749 50.461,100.749 C50.461,100.749 50.461,71.463 50.461,71.463 C50.461,71.463 59.833,71.463 59.833,71.463 C59.833,71.463 59.833,100.749 59.833,100.749 Z" id="path-8" class="cls-3" fill-rule="evenodd"/>
    <path d="M191.031,65.607 C191.031,65.607 154.619,65.607 154.619,65.607 C154.619,65.607 154.619,38.666 154.619,38.666 C154.619,38.666 191.031,38.666 191.031,38.666 C191.031,38.666 191.031,65.607 191.031,65.607 Z" id="path-9" class="cls-11" fill-rule="evenodd"/>
    <path d="M158.134,42.179 C158.134,42.179 191.031,42.179 191.031,42.179 C191.031,42.179 191.031,38.666 191.031,38.666 C191.031,38.666 154.619,38.666 154.619,38.666 C154.619,38.666 154.619,65.608 154.619,65.608 C154.619,65.608 158.134,65.608 158.134,65.608 C158.134,65.608 158.134,42.179 158.134,42.179 Z" id="path-10" class="cls-4" fill-rule="evenodd"/>
    <path d="M170.189,139.088 C164.033,139.088 159.011,143.718 158.281,149.678 C158.281,149.678 152.374,149.678 152.374,149.678 C152.374,149.678 152.374,152.605 152.374,152.605 C152.374,152.605 158.281,152.605 158.281,152.605 C159.011,158.565 164.033,163.197 170.189,163.197 C176.847,163.197 182.245,157.799 182.245,151.142 C182.245,144.484 176.847,139.088 170.189,139.088 Z" id="path-11" class="cls-4" fill-rule="evenodd"/>
    <path d="M166.675,135.572 C160.518,135.572 155.497,140.204 154.767,146.163 C154.767,146.163 148.860,146.163 148.860,146.163 C148.860,146.163 148.860,149.092 148.860,149.092 C148.860,149.092 154.767,149.092 154.767,149.092 C155.497,155.051 160.518,159.683 166.675,159.683 C173.333,159.683 178.731,154.286 178.731,147.627 C178.731,140.970 173.333,135.572 166.675,135.572 Z" id="path-12" class="cls-11" fill-rule="evenodd"/>
    <path d="M161.648,81.421 C161.648,81.421 154.619,81.421 154.619,81.421 C154.619,81.421 154.619,73.807 154.619,73.807 C154.619,73.807 161.648,73.807 161.648,73.807 C161.648,73.807 161.648,81.421 161.648,81.421 Z" id="path-13" class="cls-11" fill-rule="evenodd"/>
    <path d="M191.031,81.421 C191.031,81.421 184.002,81.421 184.002,81.421 C184.002,81.421 184.002,73.807 184.002,73.807 C184.002,73.807 191.031,73.807 191.031,73.807 C191.031,73.807 191.031,81.421 191.031,81.421 Z" id="path-14" class="cls-11" fill-rule="evenodd"/>
    <path d="M191.031,106.019 C191.031,106.019 184.002,106.019 184.002,106.019 C184.002,106.019 184.002,98.405 184.002,98.405 C184.002,98.405 191.031,98.405 191.031,98.405 C191.031,98.405 191.031,106.019 191.031,106.019 Z" id="path-15" class="cls-11" fill-rule="evenodd"/>
    <path d="M161.648,106.019 C161.648,106.019 154.619,106.019 154.619,106.019 C154.619,106.019 154.619,98.405 154.619,98.405 C154.619,98.405 161.648,98.405 161.648,98.405 C161.648,98.405 161.648,106.019 161.648,106.019 Z" id="path-16" class="cls-11" fill-rule="evenodd"/>
    <path d="M57.490,215.543 C57.490,215.543 18.833,215.543 18.833,215.543 C18.833,215.543 18.833,206.172 18.833,206.172 C18.833,206.172 57.490,206.172 57.490,206.172 C57.490,206.172 57.490,215.543 57.490,215.543 Z" id="path-17" class="cls-19" fill-rule="evenodd"/>
    <path d="M198.059,215.543 C198.059,215.543 159.402,215.543 159.402,215.543 C159.402,215.543 159.402,206.172 159.402,206.172 C159.402,206.172 198.059,206.172 198.059,206.172 C198.059,206.172 198.059,215.543 198.059,215.543 Z" id="path-18" class="cls-19" fill-rule="evenodd"/>
    <path d="M57.489,206.172 C57.489,206.172 18.833,206.172 18.833,206.172 C18.833,206.172 18.833,210.857 18.833,210.857 C18.833,210.857 57.489,210.857 57.489,210.857 C57.489,210.857 57.489,206.172 57.489,206.172 Z" id="path-19" class="cls-4" fill-rule="evenodd"/>
    <path d="M159.402,206.172 C159.402,206.172 159.402,210.857 159.402,210.857 C159.402,210.857 198.059,210.857 198.059,210.857 C198.059,210.857 198.059,206.172 198.059,206.172 C198.059,206.172 159.402,206.172 159.402,206.172 Z" id="path-20" class="cls-4" fill-rule="evenodd"/>
  </g>
</svg>
